build/system/StarSolid.svg

<svg xmlns="http://www.w3.org/2000/svg" fill="none" viewBox="0 0 24 24" focusable="false"><path d="M0 0H24V24H0z"/><path fill="#74767B" d="M12.6301 3.30998L15.0901 8.29998L20.6001 9.09998C21.1701 9.17998 21.4001 9.88998 20.9901 10.29L17.0001 14.17L17.9401 19.65C18.0401 20.22 17.4401 20.66 16.9201 20.39L12.0001 17.81L7.08012 20.4C6.57012 20.67 5.97012 20.23 6.06012 19.66L7.00012 14.17L3.02012 10.29C2.60012 9.88998 2.83012 9.17998 3.40012 9.09998L8.91012 8.29998L11.3701 3.30998C11.6301 2.78998 12.3701 2.78998 12.6301 3.30998Z"/></svg>

<svg xmlns="http://www.w3.org/2000/svg" fill="none" viewBox="0 0 24 24" focusable="false"><path fill="#74767B" d="m12.62 3.31 2.47 4.98 5.51.8c.56.08.79.79.39 1.2L17 14.17l.93 5.48c.11.56-.5 1.01-1.02.74L12 17.81 7.08 20.4c-.51.27-1.11-.17-1.02-.74L7 14.17l-3.98-3.88c-.42-.41-.19-1.12.37-1.2l5.52-.8 2.46-4.98a.69.69 0 0 1 1.25 0"/></svg>
